X:272
T:score71
L:1/8
Q:1/4=96
M:4/4
I:linebreak $
K:D
 (d3 A BA) z2 | (d3 A BA) z d/d/ | (dd) z d/d/ (dd) z(d |$ c d2 c d2) z2 | (e3 A fe) z2 | %5
 (e3 A fe) z e/e/ |$ (fe) z e/e/ (fe) z(e | fe d2 c2) z2 |] %8
